packages/kaspersky-hexa-ui-icons/src/iconsSVGs/32/StatusQuestionSolid.svg

<svg xmlns="http://www.w3.org/2000/svg" width="32" height="32" fill="none" viewBox="0 0 32 32"><path fill="#000" fill-rule="evenodd" d="M16 30c7.732 0 14-6.268 14-14S23.732 2 16 2 2 8.268 2 16s6.268 14 14 14m-.0684-18.4718c-.7458 0-1.3814.4836-1.6052 1.157-.1741.5242-.7402.8078-1.2643.6337-.5241-.1742-.8078-.7402-.6336-1.2643.4873-1.4666 1.8701-2.5264 3.5031-2.5264 2.2327 0 3.6909 1.8704 3.6909 3.8506 0 1.6544-1.0519 2.8883-2.2326 3.5847-.2671.1575-.3675.3208-.4114.4206-.0467.1064-.0486.1881-.0487.1936.0089.5522-.4315 1.0071-.9838 1.016s-1.0071-.4315-1.016-.9837c-.0061-.3789.105-1.5796 1.4439-2.3692.7897-.4658 1.2486-1.1373 1.2486-1.862 0-1.0637-.7419-1.8506-1.6909-1.8506m1.0685 9.7823c0 .5523-.4477 1-1 1s-1-.4477-1-1 .4477-1 1-1 1 .4478 1 1"/></svg>

<svg width="32" height="32" viewBox="0 0 32 32" fill="none" xmlns="http://www.w3.org/2000/svg">
<path fill-rule="evenodd" clip-rule="evenodd" d="M16 30C23.732 30 30 23.732 30 16C30 8.26801 23.732 2 16 2C8.26801 2 2 8.26801 2 16C2 23.732 8.26801 30 16 30ZM15.9316 11.5282C15.1858 11.5282 14.5502 12.0118 14.3264 12.6852C14.1523 13.2094 13.5862 13.493 13.0621 13.3189C12.538 13.1447 12.2543 12.5787 12.4285 12.0546C12.9158 10.588 14.2986 9.5282 15.9316 9.5282C18.1643 9.5282 19.6225 11.3986 19.6225 13.3788C19.6225 15.0332 18.5706 16.2671 17.3899 16.9635C17.1228 17.121 17.0224 17.2843 16.9785 17.3841C16.9318 17.4905 16.9299 17.5722 16.9298 17.5777C16.9387 18.1299 16.4983 18.5848 15.946 18.5937C15.3938 18.6026 14.9389 18.1622 14.93 17.61C14.9239 17.2311 15.035 16.0304 16.3739 15.2408C17.1636 14.775 17.6225 14.1035 17.6225 13.3788C17.6225 12.3151 16.8807 11.5282 15.9316 11.5282ZM17.0001 21.3105C17.0001 21.8628 16.5524 22.3105 16.0001 22.3105C15.4478 22.3105 15.0001 21.8628 15.0001 21.3105C15.0001 20.7583 15.4478 20.3105 16.0001 20.3105C16.5524 20.3105 17.0001 20.7583 17.0001 21.3105Z" fill="black"/>
</svg>
